media/icon-file-type/svgs/google-form/48.svg

<svg width="48" height="64" viewBox="0 0 48 64"><g fill-rule="evenodd"><path fill="#FFF" stroke="#091E42" stroke-opacity=".08" d="M3,-0.5 L31.007097,-0.5 C31.9580806,-0.5 32.8681235,-0.113029104 33.5278649,0.57188773 L45.5207679,13.0224343 C46.1490066,13.6746463 46.5,14.5449725 46.5,15.4505466 L46.5,59 C46.5,60.9329966 44.9329966,62.5 43,62.5 L3,62.5 C1.06700338,62.5 -0.5,60.9329966 -0.5,59 L-0.5,3 C-0.5,1.06700338 1.06700338,-0.5 3,-0.5 Z" transform="translate(1 1)"/><path fill="#8270DB" d="M27.5568306,23.8331318 L33.0133661,33.3419352 L26.6881383,33.4064335 L21.2316028,23.8969583 L27.5568306,23.8331318 Z M14.6666667,34.4599065 L17.883699,39.9395787 L23.3402346,30.4301035 L20.1232022,24.9504313 L14.6666667,34.4599065 Z M22.4201286,34.6238398 L19.3126009,40.1666667 L30.2256721,40.1666667 L33.3331998,34.6238398 L22.4201286,34.6238398 Z"/></g></svg>

<svg width="48" height="64" viewBox="0 0 48 64"><g fill-rule="evenodd"><path fill="#fff" stroke="#091e42" stroke-opacity=".08" d="M4 .5h28.007a3.5 3.5 0 0 1 2.52 1.072l11.994 12.45a3.5 3.5 0 0 1 .979 2.429V60a3.5 3.5 0 0 1-3.5 3.5H4A3.5 3.5 0 0 1 .5 60V4A3.5 3.5 0 0 1 4 .5Z"/><path fill="#8270db" d="m27.557 23.833 5.456 9.509-6.325.064-5.456-9.509zM14.667 34.46l3.217 5.48 5.456-9.51-3.217-5.48zm7.753.164-3.107 5.543h10.913l3.107-5.543z"/></g></svg>
